icons/SVGs/archive.svg

<?xml version="1.0" encoding="UTF-8" standalone="no"?>
<svg
   xmlns:dc="http://purl.org/dc/elements/1.1/"
   xmlns:cc="http://creativecommons.org/ns#"
   xmlns:rdf="http://www.w3.org/1999/02/22-rdf-syntax-ns#"
   xmlns:svg="http://www.w3.org/2000/svg"
   xmlns="http://www.w3.org/2000/svg"
   xmlns:sodipodi="http://sodipodi.sourceforge.net/DTD/sodipodi-0.dtd"
   xmlns:inkscape="http://www.inkscape.org/namespaces/inkscape"
   version="1.1"
   id="One_Stack_1_"
   x="0px"
   y="0px"
   width="106.66666"
   height="106.66666"
   viewBox="0 0 100 100"
   xml:space="preserve"
   inkscape:version="0.92.1 r15371"
   sodipodi:docname="archive.svg"><metadata
     id="metadata16"><rdf:RDF><cc:Work
         rdf:about=""><dc:format>image/svg+xml</dc:format><dc:type
           rdf:resource="http://purl.org/dc/dcmitype/StillImage" /><dc:title /></cc:Work></rdf:RDF></metadata><defs
     id="defs14" /><sodipodi:namedview
     pagecolor="#ffffff"
     bordercolor="#666666"
     borderopacity="1"
     objecttolerance="10"
     gridtolerance="10"
     guidetolerance="10"
     inkscape:pageopacity="0"
     inkscape:pageshadow="2"
     inkscape:window-width="1920"
     inkscape:window-height="1177"
     id="namedview12"
     showgrid="false"
     inkscape:zoom="3.4864131"
     inkscape:cx="22.36587"
     inkscape:cy="50"
     inkscape:window-x="0"
     inkscape:window-y="23"
     inkscape:window-maximized="1"
     inkscape:current-layer="One_Stack_1_" /><path
     style="fill:#000000;fill-opacity:1;stroke:none"
     d="M 0,13.667969 V 86.330078 H 100 V 13.669922 Z m 38.601562,17 0.0098,13.992187 h 24.44336 l 0.01758,-13.992187 7.925781,0.01563 v 21.742187 h -40 V 30.683594 Z m 8.146485,29.621093 H 55.25 v 8.501954 h -8.501953 z"
     id="path6"
     inkscape:connector-curvature="0" /></svg>

<?xml version="1.0" encoding="UTF-8" standalone="no"?>
<svg
   xmlns:dc="http://purl.org/dc/elements/1.1/"
   xmlns:cc="http://creativecommons.org/ns#"
   xmlns:rdf="http://www.w3.org/1999/02/22-rdf-syntax-ns#"
   xmlns:svg="http://www.w3.org/2000/svg"
   xmlns="http://www.w3.org/2000/svg"
   xmlns:sodipodi="http://sodipodi.sourceforge.net/DTD/sodipodi-0.dtd"
   xmlns:inkscape="http://www.inkscape.org/namespaces/inkscape"
   version="1.1"
   id="One_Stack_1_"
   x="0px"
   y="0px"
   width="100px"
   height="100px"
   viewBox="0 0 100 100"
   style="enable-background:new 0 0 100 100;"
   xml:space="preserve"
   inkscape:version="0.91 r13725"
   sodipodi:docname="archive.svg"><metadata
     id="metadata16"><rdf:RDF><cc:Work
         rdf:about=""><dc:format>image/svg+xml</dc:format><dc:type
           rdf:resource="http://purl.org/dc/dcmitype/StillImage" /><dc:title /></cc:Work></rdf:RDF></metadata><defs
     id="defs14" /><sodipodi:namedview
     pagecolor="#ffffff"
     bordercolor="#666666"
     borderopacity="1"
     objecttolerance="10"
     gridtolerance="10"
     guidetolerance="10"
     inkscape:pageopacity="0"
     inkscape:pageshadow="2"
     inkscape:window-width="1912"
     inkscape:window-height="1002"
     id="namedview12"
     showgrid="false"
     inkscape:zoom="3.4864131"
     inkscape:cx="22.36587"
     inkscape:cy="50"
     inkscape:window-x="4"
     inkscape:window-y="27"
     inkscape:window-maximized="0"
     inkscape:current-layer="One_Stack_1_" /><path
     style="fill:#000000;fill-opacity:1;stroke:none"
     d="M 0 13.667969 L 0 86.330078 L 100 86.330078 L 100 13.669922 L 0 13.667969 z M 38.601562 30.667969 L 38.611328 44.660156 L 63.054688 44.660156 L 63.072266 30.667969 L 70.998047 30.683594 L 70.998047 52.425781 L 30.998047 52.425781 L 30.998047 30.683594 L 38.601562 30.667969 z M 46.748047 60.289062 L 55.25 60.289062 L 55.25 68.791016 L 46.748047 68.791016 L 46.748047 60.289062 z "
     id="path6" /></svg>
